X: 1
T: Tuaim na Farraige / The Atlantic Roar
M: 4/4
L: 1/8
K: G
DEF|G2 {A}GF G2 ef|gefd e^cAG|F2 {G}FE F2 D2|G2 {A}GF GDB,D| 
G2 {A}GF G2 ef|gefd e^cAG|F2 {G}FE F2 DF|AB A/G/F GABc||
|:d^cde d2B=c|d/e/f gbab gd|Bdde d2=cB|AFDF AFDF|d^cde d2B=c|
d/e/f gabg d=c|B2GB A2FA|1 G2GF GAB=c:|2 G2GF G|
